X:131
T:Cyder And Perry. WM.131
M:6/8
L:1/8
Q:3/8=70
S:Wm.Mittell’s MS, New Romney,Kent,1799
R:.Jig
O:England
A:Kent
Z:vmp.Chris Partington
K:D
a/f/|ddd {f}dcd|ede cBA|ddd eee|fga e2a/g/|!
fff ddd|gfg b2b|afd {f}ede|fdd d2:|!
|:A/G/|FDd BGe|cAc d/e/f/g/a|bge afd|(f2g/f/) e2A/G/|!
FDd BGe|cAc d/e/f/g/a|bge afd|gecd2:|!
|:a|(a2f)(f2d)|(d2A)A2f|.g(g/a/g) .f(f/g/f)|ecAA2a|!
(a2f)(f2d)|B2g g2b|afd {f}ede|fddd2:|

